X:3171
T:Colección Feij\'oo: N\'umero 18
O:Galicia (Spain)
B:Libro Aires da Terra, de J.L. Calle
Z:Transcrito por Jos\'e J. Presedo
Z:Covertido de Midi a abc por Antonio-Nil
N:http://www.arrakis.es/~jpresedo/
M: 4/4
L: 1/8
Q:1/4=200
K:D % 2 sharps
V:1
z4 =c3B|d3B d=c BA|B2 G2-<G/2=c2-=c/2A|B3G FG AB|
=cB AG2<=c2B|d3B d=c BA|B2 G2-<G/2=c2-=c/2A|B3G FG AB|
G4 =c3B|d3B d=c BA|B2 G2-<G/2=c2-=c/2A|B3G FG AB|
=cB AG2<=c2B|d3B d=c BA|B2 G2-<G/2=c2-=c/2A|B3G FG AB|
G4 GB AF|FA GE FG FC|E2 D2 DE FG|BA FD AG EC|
D4 GB AF|FA GE FG FC|E2 D2 DE FG|BA FD AG EC|
D4 GB AF|FA GE FG FC|E2 D2 DE FG|BA FD AG EC|
D4 GB AF|FA GE FG FC|E2 D2 DE FG|BA FD AG EC|
D4 =c3B|d3B d=c BA|B2 G2-<G/2=c2-=c/2A|B3G FG AB|
=cB AG2<=c2B|d3B d=c BA|B2 G2-<G/2=c2-=c/2A|B3G FG AB|
G4 =c3B|d3B d=c BA|B2 G2-<G/2=c2-=c/2A|B3G FG AB|
=cB AG2<=c2B|d3B d=c BA|B2 G2-<G/2=c2-=c/2A|B3G FG AB|
G4 GB AF|FA GE FG FC|E2 D2 DE FG|BA FD AG EC|
D4 GB AF|FA GE FG FC|E2 D2 DE FG|BA FD AG EC|
D4 GB AF|FA GE FG FC|E2 D2 DE FG|BA FD AG EC|
D4 GB AF|FA GE FG FC|E2 D2 DE FG|BA FD AG EC|
D4 
V:2
z4 =c3B|G3G BA GF|D2 D2-<D/2A2-A/2F|G3E DE FG|
AG FE2<A2D|G3G BA GF|D2 D2-<D/2A2-A/2F|G3E DE FG|
D4 A3D|G3G BA GF|D2 D2-<D/2A2-A/2F|G3E DE FG|
AG FE2<A2D|G3G BA GF|D2 D2-<D/2A2-A/2F|G3E DE FG|
D4 GB AF|FA GE FG FC|E2 D2 FG AB|de ^cA cd BG|
F4 GB AF|FA GE FG FC|E2 D2 FG AB|dF cB cB GF|
G4 GB AF|FA GE FG FC|E2 D2 FG AB|de cA cd BG|
F4 GB AF|FA GE FG FC|E2 D2 FG AB|dF cB cB GF|
G4 =c3B|G3G BA GF|D2 D2-<D/2A2-A/2F|G3E DE FG|
AG FE2<A2D|G3G BA GF|D2 D2-<D/2A2-A/2F|G3E DE FG|
D4 A3D|G3G BA GF|D2 D2-<D/2A2-A/2F|G3E DE FG|
AG FE2<A2D|G3G BA GF|D2 D2-<D/2A2-A/2F|G3E DE FG|
D4 GB AF|FA GE FG FC|E2 D2 FG AB|de ^cA cd BG|
F4 GB AF|FA GE FG FC|E2 D2 FG AB|dF cB cB GF|
G4 GB AF|FA GE FG FC|E2 D2 FG AB|de cA cd BG|
F4 GB AF|FA GE FG FC|E2 D2 FG AB|dF cB cB GF|
G4 


